front/public/static/landing/logos/white/doctolib.svg

<svg fill="none" height="240" viewBox="0 0 600 240" width="600" xmlns="http://www.w3.org/2000/svg"><path d="m142.468 164.078c-17.97 0-20.693-2.112-19.771-6.167.67-2.872 15.373-58.1168 15.708-59.384 1.466-5.9131 7.624-4.4771 7.875-4.4349.168.0425.293.2113.252.3803-.545 4.7305-9.174 51.4016-9.258 51.9926-.712 4.604 0 5.069 5.655 5.069 27.94 0 38.077-19.471 40.842-35.014 4.776-26.9471-21.447-35.0143-58.016-31.7198-.335.0422-2.765.1691-3.812-.3378-1.383-.676-2.556-2.3654-2.849-3.2945-.125-.3378-.125-.6757 0-.8869.084-.1269.168-.2535.293-.2956 11.813-2.112 28.234-4.9418 38.832-3.8014 40.13 4.2657 40.13 29.734 37.784 42.616-1.299 7.476-8.085 45.278-53.535 45.278zm143.848-16.641c-2.597 8.911-10.514 15.078-19.73 15.331-7.749.423-15.499-4.012-18.892-10.854-1.34-2.577-2.094-5.364-2.387-8.659-1.174.549-2.388 1.056-3.603 1.436-1.592 4.52-4.357 8.701-8.169 11.573-8.168 6.124-19.226 7.898-29.154 2.408-12.232-8.49-10.724-25.596-2.179-35.648 8.504-10.052 24.129-11.742 31.962-6.8 5.32 3.463 8.168 9.419 8.922 15.628 1.131-.803 2.137-1.817 3.31-3.168 1.089-1.309 3.225-4.52 3.225-4.52 1.257-1.942 2.807-3.758 4.524-5.321 3.603-3.168 8.168-4.731 12.776-4.731 3.98 0 8.043 1.183 11.562 3.59 1.131.761 1.424 1.183 1.047 1.816-.503.93-1.047 1.774-1.717 2.577-1.257 1.52-2.556.971-3.435.591-.126-.042-.252-.127-.377-.169-3.938-1.394-7.163-1.098-10.515.929-7.246 4.435-8.336 13.051-6.995 19.64 1.382 6.716 5.069 8.997 7.959 9.715 5.278 1.351 12.357-1.521 16.839-6.843 1.341-1.605 3.393-.549 4.859.634.084.042.126.084.168.127.209.253 0 .675 0 .718zm-55.084-22.639c-5.404-6.758-15.206-4.477-20.735 1.774-5.53 6.293-5.614 16.599.419 20.949 5.654 4.055 14.661 1.901 19.101-4.604 3.1-4.561 5.906-12.248 1.215-18.119zm135.218 14.191c-.754 6.589-4.105 13.263-9.467 17.317-8.168 6.124-19.227 7.898-29.155 2.408-1.256-.887-2.388-1.859-3.351-2.915-1.675 1.521-3.644 3.041-5.823 4.351-6.66 4.054-15.959 2.999-21.698-2.408-3.645-3.294-5.404-8.743-4.733-14.276.586-4.899 4.942-21.794 9.006-36.914-3.98.126-7.457 0-9.384-.929-3.099-1.521-2.346-6.7157-2.052-8.1942.042-.211.251-.38.461-.38 1.508 0 7.205-.0422 13.53-.0844 2.639-9.7144 4.733-17.0212 4.733-17.0212.754-2.5767 3.561-3.9705 6.116-3.9705.503 0 .964.0425 1.424.1691.168.0422.252.2112.21.4225-.67 4.1814-1.969 11.7838-3.519 20.4001 3.435 0 6.535.0422 8.629.0844 7.373.169 17.091.5912 19.06.6756.209 0 .419.1691.461.3804.209.929.377 3.2522-2.262 4.7722-2.263 1.267-18.683 2.45-26.223 2.957-.419.042-.796.042-1.215.084-3.141 17.486-6.493 35.605-6.66 36.408-.838 4.224 1.801 6.8 4.147 7.307 4.314.929 7.833-.929 10.765-3.632-1.633-7.899.922-16.768 6.158-22.977 8.504-10.052 24.128-11.742 31.962-6.8 7.371 4.857 9.97 14.403 8.88 22.765zm-11.729-14.191c-5.404-6.758-15.206-4.477-20.735 1.774-5.529 6.293-5.613 16.599.419 20.949 5.655 4.055 14.661 1.901 19.101-4.604 3.1-4.561 5.907-12.248 1.215-18.119zm60.825-21.16c2.429 1.605 5.485.844 7.454-.634 1.34-1.013 2.219-2.661 2.429-4.4349.254-1.8582-.21-4.477-2.26-5.8283-.798-.5069-1.719-.7181-2.683-.7181-1.506 0-3.056.549-4.27 1.2669-.379.2534-.67.5069-.965.8447-.169.2113-.335.4647-.46.7181-1.719 3.0411-2.094 6.7996.755 8.7856zm56.296 12.671c-5.57-3.548-15.162-3.675-23.289.211 1.759-9.757 5.572-36.5346 6.117-39.9135.041-.1269 0-.2113-.044-.2957-.041-.0846-.125-.1268-.21-.1268-.46-.0844-.92-.1688-1.424-.1688-2.555 0-5.36 1.3938-6.114 3.9702 0 0-14.912 60.6936-15.416 63.5236-3.434 5.364-7.582 7.433-12.106 6.039-3.77-1.182-3.56-4.097-3.435-5.533.21-2.28 4.105-24.792 4.818-29.818.041-.338-.169-.634-.504-.718-.795-.127-1.634-.212-2.47-.212-2.764 0-5.613 1.014-7.288 5.238-.044.169-4.943 17.443-5.867 21.16-.125.465-.21.929-.335 1.394-3.6 5.491-9.173 10.305-17.216 8.574-2.344-.507-4.943-2.239-4.148-7.307.21-1.352 7.583-44.3481 9.721-58.0749.041-.2112-.044-.38-.21-.4222-.46-.1269-.964-.169-1.424-.169-2.555 0-5.322 1.3938-6.118 3.9701 0 0-11.771 43.546-14.282 55.836-1.133 5.406-.335 10.686 4.44 14.952 4.439 4.012 12.986 5.28 20.064 2.281 4.105-1.732 7.539-4.562 9.928-7.011 3.099 6.251 10.516 10.305 17.341 8.658 5.278-1.267 9.301-5.111 11.94-8.321 1.046 1.521 2.26 2.872 3.56 3.928 6.073 4.857 14.661 5.745 22.453 3.421 3.938-.886 7.708-2.618 10.976-5.068 5.36-4.097 8.754-10.728 9.464-17.317 1.09-8.362-1.549-17.908-8.922-22.68zm-3.854 27.58c-4.396 6.504-14.492 8.954-20.146 4.899-6.074-4.35-4.903-14.994.626-21.245 5.532-6.293 15.331-8.531 20.738-1.774 4.69 5.829 1.884 13.516-1.218 18.12z" fill="#fff"/></svg>

<svg width="600" height="240" viewBox="0 0 600 240" fill="none" xmlns="http://www.w3.org/2000/svg">
<path d="M142.468 164.078C124.498 164.078 121.775 161.966 122.697 157.911C123.367 155.039 138.07 99.7942 138.405 98.527C139.871 92.6139 146.029 94.0499 146.28 94.0921C146.448 94.1346 146.573 94.3034 146.532 94.4724C145.987 99.2029 137.358 145.874 137.274 146.465C136.562 151.069 137.274 151.534 142.929 151.534C170.869 151.534 181.006 132.063 183.771 116.52C188.547 89.5729 162.324 81.5057 125.755 84.8002C125.42 84.8424 122.99 84.9693 121.943 84.4624C120.56 83.7864 119.387 82.097 119.094 81.1679C118.969 80.8301 118.969 80.4922 119.094 80.281C119.178 80.1541 119.262 80.0275 119.387 79.9854C131.2 77.8734 147.621 75.0436 158.219 76.184C198.349 80.4497 198.349 105.918 196.003 118.8C194.704 126.276 187.918 164.078 142.468 164.078ZM286.316 147.437C283.719 156.348 275.802 162.515 266.586 162.768C258.837 163.191 251.087 158.756 247.694 151.914C246.354 149.337 245.6 146.55 245.307 143.255C244.133 143.804 242.919 144.311 241.704 144.691C240.112 149.211 237.347 153.392 233.535 156.264C225.367 162.388 214.309 164.162 204.381 158.672C192.149 150.182 193.657 133.076 202.202 123.024C210.706 112.972 226.331 111.282 234.164 116.224C239.484 119.687 242.332 125.643 243.086 131.852C244.217 131.049 245.223 130.035 246.396 128.684C247.485 127.375 249.621 124.164 249.621 124.164C250.878 122.222 252.428 120.406 254.145 118.843C257.748 115.675 262.313 114.112 266.921 114.112C270.901 114.112 274.964 115.295 278.483 117.702C279.614 118.463 279.907 118.885 279.53 119.518C279.027 120.448 278.483 121.292 277.813 122.095C276.556 123.615 275.257 123.066 274.378 122.686C274.252 122.644 274.126 122.559 274.001 122.517C270.063 121.123 266.838 121.419 263.486 123.446C256.24 127.881 255.15 136.497 256.491 143.086C257.873 149.802 261.56 152.083 264.45 152.801C269.728 154.152 276.807 151.28 281.289 145.958C282.63 144.353 284.682 145.409 286.148 146.592C286.232 146.634 286.274 146.676 286.316 146.719C286.525 146.972 286.316 147.394 286.316 147.437ZM231.232 124.798C225.828 118.04 216.026 120.321 210.497 126.572C204.967 132.865 204.883 143.171 210.916 147.521C216.57 151.576 225.577 149.422 230.017 142.917C233.117 138.356 235.923 130.669 231.232 124.798ZM366.45 138.989C365.696 145.578 362.345 152.252 356.983 156.306C348.815 162.43 337.756 164.204 327.828 158.714C326.572 157.827 325.44 156.855 324.477 155.799C322.802 157.32 320.833 158.84 318.654 160.15C311.994 164.204 302.695 163.149 296.956 157.742C293.311 154.448 291.552 148.999 292.223 143.466C292.809 138.567 297.165 121.672 301.229 106.552C297.249 106.678 293.772 106.552 291.845 105.623C288.746 104.102 289.499 98.9073 289.793 97.4288C289.835 97.2178 290.044 97.0488 290.254 97.0488C291.762 97.0488 297.459 97.0066 303.784 96.9644C306.423 87.25 308.517 79.9432 308.517 79.9432C309.271 77.3665 312.078 75.9727 314.633 75.9727C315.136 75.9727 315.597 76.0152 316.057 76.1418C316.225 76.184 316.309 76.353 316.267 76.5643C315.597 80.7457 314.298 88.3481 312.748 96.9644C316.183 96.9644 319.283 97.0066 321.377 97.0488C328.75 97.2178 338.468 97.64 340.437 97.7244C340.646 97.7244 340.856 97.8935 340.898 98.1048C341.107 99.0338 341.275 101.357 338.636 102.877C336.373 104.144 319.953 105.327 312.413 105.834C311.994 105.876 311.617 105.876 311.198 105.918C308.057 123.404 304.705 141.523 304.538 142.326C303.7 146.55 306.339 149.126 308.685 149.633C312.999 150.562 316.518 148.704 319.45 146.001C317.817 138.102 320.372 129.233 325.608 123.024C334.112 112.972 349.736 111.282 357.57 116.224C364.941 121.081 367.54 130.627 366.45 138.989ZM354.721 124.798C349.317 118.04 339.515 120.321 333.986 126.572C328.457 132.865 328.373 143.171 334.405 147.521C340.06 151.576 349.066 149.422 353.506 142.917C356.606 138.356 359.413 130.669 354.721 124.798ZM415.546 103.638C417.975 105.243 421.031 104.482 423 103.004C424.34 101.991 425.219 100.343 425.429 98.5691C425.683 96.7109 425.219 94.0921 423.169 92.7408C422.371 92.2339 421.45 92.0227 420.486 92.0227C418.98 92.0227 417.43 92.5717 416.216 93.2896C415.837 93.543 415.546 93.7965 415.251 94.1343C415.082 94.3456 414.916 94.599 414.791 94.8524C413.072 97.8935 412.697 101.652 415.546 103.638ZM471.842 116.309C466.272 112.761 456.68 112.634 448.553 116.52C450.312 106.763 454.125 79.9854 454.67 76.6065C454.711 76.4796 454.67 76.3952 454.626 76.3108C454.585 76.2262 454.501 76.184 454.416 76.184C453.956 76.0996 453.496 76.0152 452.992 76.0152C450.437 76.0152 447.632 77.409 446.878 79.9854C446.878 79.9854 431.966 140.679 431.462 143.509C428.028 148.873 423.88 150.942 419.356 149.548C415.586 148.366 415.796 145.451 415.921 144.015C416.131 141.735 420.026 119.223 420.739 114.197C420.78 113.859 420.57 113.563 420.235 113.479C419.44 113.352 418.601 113.267 417.765 113.267C415.001 113.267 412.152 114.281 410.477 118.505C410.433 118.674 405.534 135.948 404.61 139.665C404.485 140.13 404.4 140.594 404.275 141.059C400.675 146.55 395.102 151.364 387.059 149.633C384.715 149.126 382.116 147.394 382.911 142.326C383.121 140.974 390.494 97.9779 392.632 84.2511C392.673 84.0399 392.588 83.8711 392.422 83.8289C391.962 83.702 391.458 83.6599 390.998 83.6599C388.443 83.6599 385.676 85.0537 384.88 87.63C384.88 87.63 373.109 131.176 370.598 143.466C369.465 148.872 370.263 154.152 375.038 158.418C379.477 162.43 388.024 163.698 395.102 160.699C399.207 158.967 402.641 156.137 405.03 153.688C408.129 159.939 415.546 163.993 422.371 162.346C427.649 161.079 431.672 157.235 434.311 154.025C435.357 155.546 436.571 156.897 437.871 157.953C443.944 162.81 452.532 163.698 460.324 161.374C464.262 160.488 468.032 158.756 471.3 156.306C476.66 152.209 480.054 145.578 480.764 138.989C481.854 130.627 479.215 121.081 471.842 116.309ZM467.988 143.889C463.592 150.393 453.496 152.843 447.842 148.788C441.768 144.438 442.939 133.794 448.468 127.543C454 121.25 463.799 119.012 469.206 125.769C473.896 131.598 471.09 139.285 467.988 143.889Z" fill="white"/>
</svg>
